X: 104
T:San Blas
M:6/8
L:1/8
Q:200
C:Trad
R:Muiñeira
K:C
cB | GE C2 cB| GEC {D}CB,C |1 DEF {C}FED |GEC2 :|2  DEFDB,D |{B,}C3 |: {
D}CB,C | DEF {C}FED| 
GEC2 G{C}G| {A}GEC FDB, |1 GEC :|2 C4 ||

